X: 4332
T: Apppin House
%R: reel
B: Niel Gow & Sons "Complete Repository" v.4 p.33 #2
Z: 2021 John Chambers <jc:trillian.mit.edu>
M: C|
L: 1/8
K: A
% - - - - - - - - - -
V: 1 staves=2
e |\
c>A A/A/A cAcA | B>F F/F/F BFBd | c>A A/A/A cAcA | B>F BG A2A, :: C |\
(A,CE).C ACDC | (A,CE).C ACB,C |
(A,CE).C AFED | CAB,G {G}A2A, :: d |\
ceAe ceAc | BFdF BFBd | ceAe ceAc | BFBG A2A :|
|: c |\
(A/B/c/d/) ec acec | (B/c/d/e/) fd bdfd | (A/B/c/d/) ec acea | (g/a/b) eg {g}a2a :: e |\
aec'e aec'e | bfd'f bfd'f |
aec'e aec'a | (g/a/b) eg a2a :: E |\
(C/B,/A,) EA, AA,EA, | (D/C/B,) FB, BB,FB, | (C/B,/A,) EA, AA,EA | (G/A/B) EG A2A :|
% - - - - - - - - - -
% Voice 2 preserves the book's staff layout.
V: 2 clef=bass middle=d
z |\
a2a2 a2a2 | d2d2 d2g2 | a2a2 a2c2 | d2e2 A2A :: z | [A2A,2][A2A,2] [A2A,2][A2A,2] |
[A2A,2][A2A,2] [A2A,2][e2E2] | [A2A,2][c2C2] [d2D2][d2D2] | e2E2 A2A :: z |\
[e'2a2][e'2a2] [e'2a2][e'2a2] | [b2f2d2][b2f2d2] [b2f2d2][b2g2e2] |\
[c'2a2e2][c'2a2e2] [c'2a2e2] [a2e2c2] | [b2f2d2][b2g2e2] | a2A :: z |
[a2A2][a2A2] [a2A2][a2A2] | [b2B2][b2B2] [b2B2][b2B2] |\
[a2A2][a2A2] [a2A2][a2A2] | e2E2 A2A !f!::z | a2a2 a2a2 | b2b2 b2b2 |
a2a2 a2a2 | e'2e2 a2A !f!:: z | [A2A,2][A2A,2] [A2A,2][e2E2] |  [b2B2][b2B2] [b2B2][b2B2] |\
[A2A,2][A2A,2] [A2A,2][c2C2] | [e2E2][e2E2] [A2A,2][AA,] :|


